public/logos/18_esp/FdC.svg

<svg version="1.1" id="Layer_1" xmlns="http://www.w3.org/2000/svg" xmlns:xlink="http://www.w3.org/1999/xlink" x="0px" y="0px"
	 width="100%" viewBox="0 0 214 246" enable-background="new 0 0 214 246" xml:space="preserve">
<path fill="#2D2C2A" opacity="1.000000" stroke="none"
	d="
M215.000000,158.531342
	C213.040955,165.188980 211.223953,171.427353 209.093063,177.556610
	C204.775085,189.976700 195.972321,199.120178 185.958817,206.912460
	C163.934891,224.050995 137.737442,233.670578 113.107590,246.653351
	C112.250000,247.000000 111.500000,247.000000 110.375000,247.000000
	C98.098976,241.013123 86.015350,235.358292 74.349846,228.943130
	C63.349628,222.893799 52.760040,216.091812 42.074509,209.483963
	C40.780235,208.683609 40.013123,207.030777 39.332344,205.492859
	C41.091400,206.010529 42.500885,206.844681 43.951065,207.600800
	C63.979042,218.043167 84.012619,228.474792 104.408607,239.007935
	C109.132141,237.083557 113.590248,235.246536 117.834641,233.004852
	C136.485550,223.154358 155.705627,214.192535 173.528503,203.010468
	C196.430511,188.641754 207.744492,167.093033 207.105621,139.560379
	C206.715256,122.737053 207.051025,105.897255 207.029739,89.064896
	C206.993088,60.069843 206.932312,31.074818 206.926682,1.811530
	C206.981140,1.362185 206.990570,1.181092 207.000000,1.000000
	C207.000000,1.000000 207.500000,1.000000 207.737213,1.443909
	C207.974426,3.458972 207.974426,5.030126 207.974426,7.000000
	C210.559860,7.000000 212.779938,7.000000 215.000000,7.000000
	C215.000000,57.354229 215.000000,107.708458 215.000000,158.531342
z"/>
<path fill="#36332E" opacity="1.000000" stroke="none"
	d="
M2.978627,157.869843
	C2.557126,156.332458 2.135627,154.795074 1.357063,153.128845
	C1.000000,103.666672 0.992158,54.333336 1.041897,5.000060
	C1.043242,3.666386 1.666667,2.333339 2.488020,1.202400
	C2.976040,1.404800 2.959788,1.809982 2.622540,2.090775
	C2.194142,3.691924 2.023650,5.012261 2.023319,6.332641
	C2.011904,51.897423 1.987267,97.462250 2.061001,143.026932
	C2.069009,147.975052 2.658730,152.922226 2.978627,157.869843
z"/>
<path fill="#9B644D" opacity="1.000000" stroke="none"
	d="
M206.531342,1.000000
	C206.990570,1.181092 206.981140,1.362185 206.467438,1.787180
	C194.347809,2.020413 182.732391,1.980061 171.117126,2.005348
	C148.056686,2.055551 124.996315,2.141931 101.928223,2.113773
	C101.920525,2.014185 101.977676,1.822765 101.977463,1.616916
	C101.977242,1.411068 102.000000,1.000000 102.000000,1.000000
	C136.687561,1.000000 171.375122,1.000000 206.531342,1.000000
z"/>
<path fill="#534A39" opacity="1.000000" stroke="none"
	d="
M101.531342,1.000000
	C102.000000,1.000000 101.977242,1.411068 101.515244,1.679487
	C68.355431,1.901931 35.657608,1.855956 2.959788,1.809982
	C2.959788,1.809982 2.976040,1.404800 2.988020,1.202400
	C35.687561,1.000000 68.375122,1.000000 101.531342,1.000000
z"/>
<path fill="#D7B56D" opacity="1.000000" stroke="none"
	d="
M2.622540,2.090775
	C35.657608,1.855956 68.355431,1.901931 101.515465,1.885335
	C101.977676,1.822765 101.920525,2.014185 101.947418,2.562338
	C102.299438,25.992268 102.624573,48.874043 102.705048,72.024086
	C103.128151,77.996506 103.795914,83.700668 104.491890,89.645805
	C88.630493,86.596962 79.323273,90.260956 74.893250,100.829575
	C70.521980,111.258003 73.568123,121.229774 83.139374,127.936142
	C87.986053,135.440613 95.115906,135.640244 104.044823,134.260330
	C104.044823,169.536804 104.044823,204.222931 104.044823,238.909058
	C84.012619,228.474792 63.979042,218.043167 43.951065,207.600800
	C42.500885,206.844681 41.091400,206.010529 39.322495,205.136505
	C32.324177,199.235245 25.261257,193.804581 19.109627,187.486633
	C11.164216,179.326431 6.191207,169.268555 3.206063,158.023285
	C2.658730,152.922226 2.069009,147.975052 2.061001,143.026932
	C1.987267,97.462250 2.011904,51.897423 2.023319,6.332641
	C2.023650,5.012261 2.194142,3.691924 2.622540,2.090775
M64.964188,100.144653
	C64.635292,98.129814 64.306404,96.114975 64.097397,94.834595
	C59.542938,94.834595 55.776699,94.834595 52.009499,93.964882
	C52.009499,92.191864 52.009499,90.418854 52.009499,87.736755
	C58.979950,88.161415 65.303513,88.546669 71.742592,88.938965
	C75.791130,82.183830 74.716057,78.373825 68.024078,76.227646
	C67.882812,72.340935 65.305984,71.069031 62.009365,71.037872
	C51.765575,70.941071 41.520290,71.002434 31.063795,71.002434
	C31.424870,77.667496 31.999020,82.930748 31.934574,88.186157
	C31.800228,99.142036 31.382746,110.095825 30.968390,121.046196
	C30.800716,125.477379 32.197094,128.524094 37.018761,129.902054
	C39.684246,136.232544 44.392929,136.866364 53.638428,132.090302
	C53.241879,130.014862 52.588482,127.926170 52.490990,125.811836
	C52.278389,121.201080 51.414963,116.260056 52.816967,112.133270
	C53.298565,110.715691 59.724571,111.197044 63.444801,111.026192
	C70.512749,110.701591 72.749580,106.825005 69.380028,100.430305
	C67.943344,100.606972 66.486359,100.786125 64.964188,100.144653
M43.767414,179.709641
	C47.435596,183.787674 51.103783,187.865707 54.660339,191.819641
	C56.377441,185.968231 59.382393,180.076599 67.450333,178.236374
	C58.639511,176.219452 55.588463,169.577576 53.649361,161.826004
	C52.508095,169.753174 48.584805,175.295563 40.386024,178.085999
	C41.954140,178.813385 42.546825,179.088318 43.767414,179.709641
z"/>
<path fill="#F08365" opacity="1.000000" stroke="none"
	d="
M104.408607,239.007935
	C104.044823,204.222931 104.044823,169.536804 104.044823,134.260330
	C95.115906,135.640244 87.986053,135.440613 83.543655,128.055969
	C90.381752,130.117691 96.350739,129.144623 102.097076,125.120132
	C102.753426,127.667931 103.089561,129.971024 103.425690,132.274124
	C104.085121,132.809784 104.744553,133.345459 105.403984,133.881134
	C106.305428,132.170151 107.206871,130.459167 108.346786,128.715607
	C108.585258,128.683014 108.992683,128.939423 109.000580,129.319351
	C110.793999,134.454971 112.945366,135.316040 117.650795,134.312439
	C122.327309,133.315033 123.002007,130.952118 121.559448,126.885239
	C120.971100,125.226570 120.991745,123.286728 121.030640,121.481171
	C121.305862,108.703964 121.709412,95.929390 121.950378,83.151672
	C122.013672,79.795082 122.000175,76.194748 117.072701,75.599045
	C116.442574,70.774940 113.552086,69.503654 109.610382,70.066238
	C107.355705,70.388046 105.167725,71.177124 102.949707,71.755821
	C102.624573,48.874043 102.299438,25.992268 101.955109,2.661925
	C124.996315,2.141931 148.056686,2.055551 171.117126,2.005348
	C182.732391,1.980061 194.347809,2.020413 206.422394,2.055433
	C206.932312,31.074818 206.993088,60.069843 207.029739,89.064896
	C207.051025,105.897255 206.715256,122.737053 207.105621,139.560379
	C207.744492,167.093033 196.430511,188.641754 173.528503,203.010468
	C155.705627,214.192535 136.485550,223.154358 117.834641,233.004852
	C113.590248,235.246536 109.132141,237.083557 104.408607,239.007935
M137.031174,125.958534
	C137.031174,125.958534 137.051941,125.877968 137.088181,126.579697
	C145.526276,135.526245 156.236862,137.063644 167.648071,135.496216
	C170.739273,135.071609 174.282410,133.773499 176.358246,131.646652
	C177.650208,130.322952 176.925110,126.626358 176.454285,124.116867
	C176.091415,122.182732 174.806061,120.249359 171.975616,121.286903
	C170.957199,119.273094 169.938797,117.259285 168.865250,115.136436
	C160.464172,118.353714 152.538910,119.976082 144.964432,113.533218
	C143.384674,106.152222 142.892014,99.029030 149.197830,93.260635
	C155.314163,87.665581 162.544800,87.041687 170.146286,88.654617
	C173.072235,89.275459 174.814835,88.834129 176.073578,85.959961
	C178.397949,80.652565 177.144669,78.198082 171.019608,76.187828
	C170.965225,72.660431 168.613342,71.428635 165.657089,70.624199
	C152.494095,67.042343 133.826324,74.789017 126.925842,86.474022
	C120.979164,96.543861 120.189552,114.465439 136.255737,125.554512
	C136.492981,125.793564 136.779129,125.930023 137.031174,125.958534
M160.907990,33.586987
	C157.867722,34.861263 154.827438,36.135540 151.251755,37.634228
	C166.209442,40.234921 170.755676,51.055641 173.475952,63.586319
	C176.233047,50.894318 180.862610,40.209213 196.774780,37.437077
	C181.028275,34.410763 175.763168,24.279913 173.572021,10.164888
	C171.217331,19.714666 169.446762,28.161135 160.907990,33.586987
z"/>
<path fill="#040302" opacity="1.000000" stroke="none"
	d="
M102.705048,72.024086
	C105.167725,71.177124 107.355705,70.388046 109.610382,70.066238
	C113.552086,69.503654 116.442574,70.774940 117.002007,76.050888
	C117.013237,77.368797 116.996452,77.866104 116.997902,78.363365
	C117.042282,93.566353 117.140923,108.769730 117.031120,123.971581
	C117.022667,125.141785 115.797829,126.771523 114.696701,127.357033
	C112.995804,128.261459 110.913322,128.448257 108.992683,128.939423
	C108.992683,128.939423 108.585258,128.683014 108.077629,128.511139
	C106.023163,126.666336 104.476326,124.993401 102.904404,123.293327
	C102.680428,123.607582 102.228638,124.241501 101.776848,124.875420
	C96.350739,129.144623 90.381752,130.117691 83.470436,127.704056
	C73.568123,121.229774 70.521980,111.258003 74.893250,100.829575
	C79.323273,90.260956 88.630493,86.596962 104.491890,89.645805
	C103.795914,83.700668 103.128151,77.996506 102.705048,72.024086
M92.812378,118.900787
	C100.932777,118.971397 103.012863,116.947823 102.999168,109.022697
	C102.996315,107.371582 103.053619,105.720360 103.734154,103.700058
	C103.063667,102.097672 102.839783,99.705360 101.645203,99.030006
	C96.545975,96.147133 89.709991,98.573463 87.193863,103.730415
	C84.174988,109.917778 86.089729,115.820427 92.812378,118.900787
z"/>
<path fill="#030201" opacity="1.000000" stroke="none"
	d="
M52.010464,94.834595
	C55.776699,94.834595 59.542938,94.834595 64.097397,94.834595
	C64.306404,96.114975 64.635292,98.129814 64.781708,100.852219
	C62.225616,102.707115 59.947247,104.471367 57.455872,104.856026
	C53.793594,105.421471 49.979221,105.001793 45.541451,105.001793
	C46.105274,112.406860 46.637955,119.402893 47.222004,127.073624
	C44.005203,127.731903 40.497742,128.449646 36.990280,129.167404
	C32.197094,128.524094 30.800716,125.477379 30.968390,121.046196
	C31.382746,110.095825 31.800228,99.142036 31.934574,88.186157
	C31.999020,82.930748 31.424870,77.667496 31.063795,71.002434
	C41.520290,71.002434 51.765575,70.941071 62.009365,71.037872
	C65.305984,71.069031 67.882812,72.340935 67.997726,76.969910
	C67.274742,79.692238 66.578110,81.672295 66.139648,82.918549
	C59.220226,82.521683 52.921310,82.160400 46.294853,81.780334
	C46.294853,86.752411 46.294853,90.788002 46.294853,94.834595
	C48.396999,94.834595 50.203732,94.834595 52.010464,94.834595
z"/>
<path fill="#ED8364" opacity="1.000000" stroke="none"
	d="
M37.004520,129.534729
	C40.497742,128.449646 44.005203,127.731903 47.222004,127.073624
	C46.637955,119.402893 46.105274,112.406860 45.541451,105.001793
	C49.979221,105.001793 53.793594,105.421471 57.455872,104.856026
	C59.947247,104.471367 62.225616,102.707115 64.814308,101.262535
	C66.486359,100.786125 67.943344,100.606972 69.380028,100.430305
	C72.749580,106.825005 70.512749,110.701591 63.444801,111.026192
	C59.724571,111.197044 53.298565,110.715691 52.816967,112.133270
	C51.414963,116.260056 52.278389,121.201080 52.490990,125.811836
	C52.588482,127.926170 53.241879,130.014862 53.638428,132.090302
	C44.392929,136.866364 39.684246,136.232544 37.004520,129.534729
z"/>
<path fill="#FCFBF7" opacity="1.000000" stroke="none"
	d="
M43.453461,179.536438
	C42.546825,179.088318 41.954140,178.813385 40.386024,178.085999
	C48.584805,175.295563 52.508095,169.753174 53.649361,161.826004
	C55.588463,169.577576 58.639511,176.219452 67.450333,178.236374
	C59.382393,180.076599 56.377441,185.968231 54.660339,191.819641
	C51.103783,187.865707 47.435596,183.787674 43.453461,179.536438
z"/>
<path fill="#EC8264" opacity="1.000000" stroke="none"
	d="
M52.009979,94.399734
	C50.203732,94.834595 48.396999,94.834595 46.294853,94.834595
	C46.294853,90.788002 46.294853,86.752411 46.294853,81.780334
	C52.921310,82.160400 59.220226,82.521683 66.139648,82.918549
	C66.578110,81.672295 67.274742,79.692238 68.068375,77.351288
	C74.716057,78.373825 75.791130,82.183830 71.742592,88.938965
	C65.303513,88.546669 58.979950,88.161415 52.009499,87.736755
	C52.009499,90.418854 52.009499,92.191864 52.009979,94.399734
z"/>
<path fill="#040302" opacity="1.000000" stroke="none"
	d="
M135.978546,125.158287
	C120.189552,114.465439 120.979164,96.543861 126.925842,86.474022
	C133.826324,74.789017 152.494095,67.042343 165.657089,70.624199
	C168.613342,71.428635 170.965225,72.660431 170.928284,76.922791
	C169.896378,79.693291 168.955780,81.728828 168.071503,83.642494
	C153.785828,80.144867 144.268188,82.947502 139.814987,91.622375
	C135.812744,99.418800 137.837555,108.442978 144.934143,114.437477
	C152.538910,119.976082 160.464172,118.353714 168.865250,115.136436
	C169.938797,117.259285 170.957199,119.273094 171.985794,121.995819
	C171.329346,126.874298 168.183151,128.242920 164.659698,129.050949
	C155.095093,131.244339 145.935669,129.712219 137.051941,125.877968
	C137.051941,125.877968 137.031174,125.958534 136.978912,125.718269
	C136.610611,125.371429 136.294571,125.264862 135.978546,125.158287
z"/>
<path fill="#FEFBFA" opacity="1.000000" stroke="none"
	d="
M161.204590,33.369007
	C169.446762,28.161135 171.217331,19.714666 173.572021,10.164888
	C175.763168,24.279913 181.028275,34.410763 196.774780,37.437077
	C180.862610,40.209213 176.233047,50.894318 173.475952,63.586319
	C170.755676,51.055641 166.209442,40.234921 151.251755,37.634228
	C154.827438,36.135540 157.867722,34.861263 161.204590,33.369007
z"/>
<path fill="#D4B26B" opacity="1.000000" stroke="none"
	d="
M144.949280,113.985352
	C137.837555,108.442978 135.812744,99.418800 139.814987,91.622375
	C144.268188,82.947502 153.785828,80.144867 168.071503,83.642494
	C168.955780,81.728828 169.896378,79.693291 170.979401,77.297768
	C177.144669,78.198082 178.397949,80.652565 176.073578,85.959961
	C174.814835,88.834129 173.072235,89.275459 170.146286,88.654617
	C162.544800,87.041687 155.314163,87.665581 149.197830,93.260635
	C142.892014,99.029030 143.384674,106.152222 144.949280,113.985352
z"/>
<path fill="#D4B06B" opacity="1.000000" stroke="none"
	d="
M109.000580,129.319351
	C110.913322,128.448257 112.995804,128.261459 114.696701,127.357033
	C115.797829,126.771523 117.022667,125.141785 117.031120,123.971581
	C117.140923,108.769730 117.042282,93.566353 116.997902,78.363365
	C116.996452,77.866104 117.013237,77.368797 117.092209,76.419662
	C122.000175,76.194748 122.013672,79.795082 121.950378,83.151672
	C121.709412,95.929390 121.305862,108.703964 121.030640,121.481171
	C120.991745,123.286728 120.971100,125.226570 121.559448,126.885239
	C123.002007,130.952118 122.327309,133.315033 117.650795,134.312439
	C112.945366,135.316040 110.793999,134.454971 109.000580,129.319351
z"/>
<path fill="#D5B26C" opacity="1.000000" stroke="none"
	d="
M137.070068,126.228836
	C145.935669,129.712219 155.095093,131.244339 164.659698,129.050949
	C168.183151,128.242920 171.329346,126.874298 172.082214,122.342972
	C174.806061,120.249359 176.091415,122.182732 176.454285,124.116867
	C176.925110,126.626358 177.650208,130.322952 176.358246,131.646652
	C174.282410,133.773499 170.739273,135.071609 167.648071,135.496216
	C156.236862,137.063644 145.526276,135.526245 137.070068,126.228836
z"/>
<path fill="#D3A567" opacity="1.000000" stroke="none"
	d="
M102.097076,125.120132
	C102.228638,124.241501 102.680428,123.607582 102.904404,123.293327
	C104.476326,124.993401 106.023163,126.666336 107.839157,128.543732
	C107.206871,130.459167 106.305428,132.170151 105.403984,133.881134
	C104.744553,133.345459 104.085121,132.809784 103.425690,132.274124
	C103.089561,129.971024 102.753426,127.667931 102.097076,125.120132
z"/>
<path fill="#D5B26C" opacity="1.000000" stroke="none"
	d="
M136.117142,125.356400
	C136.294571,125.264862 136.610611,125.371429 137.020416,125.720940
	C136.779129,125.930023 136.492981,125.793564 136.117142,125.356400
z"/>
<path fill="#EC8163" opacity="1.000000" stroke="none"
	d="
M92.023605,118.619270
	C86.089729,115.820427 84.174988,109.917778 87.193863,103.730415
	C89.709991,98.573463 96.545975,96.147133 101.645203,99.030006
	C102.839783,99.705360 103.063667,102.097672 103.016022,103.862152
	C94.565483,105.040962 91.942886,108.766457 92.023605,118.619270
z"/>
<path fill="#D6B36C" opacity="1.000000" stroke="none"
	d="
M92.417992,118.760025
	C91.942886,108.766457 94.565483,105.040962 102.690544,104.046722
	C103.053619,105.720360 102.996315,107.371582 102.999168,109.022697
	C103.012863,116.947823 100.932777,118.971397 92.417992,118.760025
z"/>
</svg>

<svg xmlns="http://www.w3.org/2000/svg" xml:space="preserve" viewBox="0 0 214 246"><path fill="#2d2c2a" d="M215 158.531c-1.959 6.658-3.776 12.896-5.907 19.026-4.318 12.42-13.12 21.563-23.134 29.355-22.024 17.139-48.222 26.759-72.851 39.741-.858.347-1.608.347-2.733.347-12.276-5.987-24.36-11.642-36.025-18.057-11-6.05-21.59-12.851-32.275-19.459-1.295-.8-2.062-2.453-2.743-3.991 1.76.518 3.169 1.352 4.62 2.108 20.027 10.442 40.06 20.874 60.457 31.407 4.723-1.924 9.181-3.761 13.426-6.003 18.65-9.85 37.87-18.812 55.694-29.995 22.902-14.368 34.215-35.917 33.577-63.45-.39-16.823-.055-33.663-.076-50.495-.037-28.995-.098-57.99-.103-87.253.054-.45.064-.63.073-.812 0 0 .5 0 .737.444.237 2.015.237 3.586.237 5.556H215z"/><path fill="#36332e" d="M2.979 157.87c-.422-1.538-.843-3.075-1.622-4.741C1 103.667.992 54.333 1.042 5c.001-1.334.625-2.667 1.446-3.798.488.203.472.608.135.889-.429 1.6-.6 2.921-.6 4.242-.011 45.564-.036 91.13.038 136.694.008 4.948.598 9.895.918 14.843"/><path fill="#9b644d" d="M206.531 1c.46.181.45.362-.064.787-12.12.233-23.735.193-35.35.218-23.06.05-46.12.137-69.189.109-.007-.1.05-.291.05-.497S102 1 102 1z"/><path fill="#534a39" d="M101.531 1c.469 0 .446.411-.016.68-33.16.222-65.857.176-98.555.13 0 0 .016-.405.028-.608C35.688 1 68.375 1 101.531 1"/><path fill="#d7b56d" d="M2.623 2.09c33.035-.234 65.732-.188 98.892-.205.463-.062.406.13.432.677.352 23.43.678 46.312.758 69.462.423 5.973 1.09 11.677 1.787 17.622-15.862-3.049-25.169.615-29.599 11.184-4.371 10.428-1.325 20.4 8.246 27.106 4.847 7.505 11.977 7.704 20.906 6.324v104.65c-20.032-10.435-40.066-20.867-60.094-31.31-1.45-.755-2.86-1.59-4.629-2.463-6.998-5.902-14.06-11.332-20.212-17.65-7.946-8.16-12.919-18.218-15.904-29.464-.547-5.1-1.137-10.048-1.145-14.996-.074-45.565-.05-91.13-.038-136.694 0-1.32.171-2.641.6-4.242m62.341 98.054-.867-5.31c-4.554 0-8.32 0-12.088-.87v-6.228l19.734 1.202c4.048-6.755 2.973-10.565-3.719-12.711-.141-3.887-2.718-5.159-6.015-5.19-10.243-.097-20.489-.036-30.945-.036.36 6.665.935 11.929.87 17.184-.134 10.956-.551 21.91-.966 32.86-.167 4.431 1.23 7.478 6.05 8.856 2.666 6.33 7.375 6.964 16.62 2.188-.396-2.075-1.05-4.164-1.147-6.278-.213-4.61-1.076-9.552.326-13.679.482-1.417 6.908-.936 10.628-1.107 7.068-.324 9.305-4.201 5.935-10.596-1.437.177-2.894.356-4.416-.285M43.767 179.71l10.893 12.11c1.717-5.852 4.722-11.743 12.79-13.584-8.81-2.017-11.862-8.658-13.8-16.41-1.142 7.927-5.065 13.47-13.264 16.26 1.568.727 2.16 1.002 3.381 1.624"/><path fill="#f08365" d="M104.409 239.008c-.364-34.785-.364-69.471-.364-104.748-8.93 1.38-16.059 1.18-20.501-6.204 6.838 2.062 12.807 1.089 18.553-2.936.656 2.548.993 4.851 1.329 7.154l1.978 1.607c.901-1.71 1.803-3.422 2.943-5.165.238-.033.646.223.654.603 1.793 5.136 3.944 5.997 8.65 4.993 4.676-.997 5.351-3.36 3.908-7.427-.588-1.658-.567-3.598-.528-5.404.275-12.777.678-25.552.92-38.33.063-3.356.05-6.956-4.878-7.552-.63-4.824-3.52-6.095-7.463-5.533-2.254.322-4.442 1.111-6.66 1.69-.325-22.882-.65-45.764-.995-69.094 23.041-.52 46.102-.606 69.162-.657 11.615-.025 23.23.015 35.305.05.51 29.02.571 58.015.608 87.01.021 16.832-.315 33.672.076 50.495.638 27.533-10.675 49.082-33.577 63.45-17.823 11.183-37.043 20.144-55.694 29.995-4.245 2.242-8.703 4.079-13.426 6.003m32.622-113.05s.02-.08.057.622c8.438 8.946 19.149 10.484 30.56 8.916 3.091-.424 6.634-1.723 8.71-3.85 1.292-1.323.567-5.02.096-7.53-.363-1.933-1.648-3.867-4.478-2.83l-3.11-6.15c-8.402 3.218-16.327 4.84-23.902-1.603-1.58-7.38-2.072-14.504 4.234-20.272 6.116-5.595 13.347-6.22 20.948-4.606 2.926.62 4.669.18 5.928-2.695 2.324-5.307 1.07-7.762-5.054-9.772-.055-3.528-2.407-4.76-5.363-5.564-13.163-3.582-31.83 4.165-38.731 15.85-5.947 10.07-6.736 27.991 9.33 39.08.237.24.523.376.775.405m23.877-92.372-9.656 4.047c14.957 2.6 19.504 13.422 22.224 25.952 2.757-12.692 7.387-23.377 23.299-26.149-15.747-3.026-21.012-13.157-23.203-27.272-2.355 9.55-4.125 17.996-12.664 23.422"/><path fill="#040302" d="M102.705 72.024c2.463-.847 4.65-1.636 6.905-1.958 3.942-.562 6.833.709 7.392 5.985.011 1.318-.006 1.815-.004 2.312.044 15.203.143 30.407.033 45.609-.008 1.17-1.233 2.8-2.334 3.385-1.701.904-3.784 1.091-5.704 1.582 0 0-.408-.256-.915-.428-2.055-1.845-3.602-3.518-5.174-5.218l-1.127 1.582c-5.426 4.27-11.395 5.243-18.307 2.83-9.902-6.475-12.948-16.447-8.577-26.875 4.43-10.569 13.737-14.233 29.599-11.184-.696-5.945-1.364-11.65-1.787-17.622m-9.893 46.877c8.12.07 10.2-1.953 10.187-9.878-.003-1.651.055-3.303.735-5.323-.67-1.602-.894-3.995-2.089-4.67-5.099-2.883-11.935-.457-14.451 4.7-3.019 6.188-1.104 12.09 5.618 15.17"/><path fill="#030201" d="M52.01 94.835h12.087c.21 1.28.538 3.295.685 6.017-2.556 1.855-4.835 3.62-7.326 4.004-3.662.565-7.477.146-11.915.146l1.681 22.072-10.232 2.093c-4.793-.643-6.19-3.69-6.022-8.12.415-10.951.832-21.905.967-32.86.064-5.256-.51-10.52-.871-17.185 10.456 0 20.702-.06 30.945.036 3.297.031 5.874 1.303 5.989 5.932-.723 2.722-1.42 4.702-1.858 5.949L46.295 81.78v13.055z"/><path fill="#ed8364" d="M37.005 129.535c3.493-1.085 7-1.803 10.217-2.461l-1.68-22.072c4.437 0 8.252.42 11.914-.146 2.491-.385 4.77-2.149 7.358-3.593 1.672-.477 3.13-.656 4.566-.833 3.37 6.395 1.133 10.272-5.935 10.596-3.72.171-10.146-.31-10.628 1.107-1.402 4.127-.539 9.068-.326 13.679.097 2.114.75 4.203 1.147 6.278-9.245 4.776-13.954 4.143-16.633-2.555"/><path fill="#fcfbf7" d="M43.453 179.536c-.906-.448-1.499-.723-3.067-1.45 8.199-2.79 12.122-8.333 13.263-16.26 1.94 7.752 4.99 14.393 13.801 16.41-8.068 1.84-11.073 7.732-12.79 13.584-3.556-3.954-7.224-8.032-11.207-12.284"/><path fill="#ec8264" d="M52.01 94.4c-1.806.435-3.613.435-5.715.435V81.78L66.14 82.92c.438-1.247 1.135-3.227 1.928-5.568 6.648 1.023 7.723 4.833 3.675 11.588l-19.734-1.202z"/><path fill="#040302" d="M135.979 125.158c-15.79-10.693-15-28.614-9.053-38.684 6.9-11.685 25.568-19.432 38.731-15.85 2.956.805 5.308 2.036 5.271 6.299-1.032 2.77-1.972 4.806-2.856 6.72-14.286-3.498-23.804-.695-28.257 7.98-4.002 7.796-1.977 16.82 5.12 22.814 7.604 5.54 15.53 3.917 23.93.7 1.074 2.122 2.092 4.136 3.12 6.859-.656 4.878-3.802 6.247-7.325 7.055-9.565 2.193-18.724.661-27.608-3.173 0 0-.02.08-.073-.16-.368-.347-.684-.453-1-.56"/><path fill="#fefbfa" d="M161.205 33.369c8.242-5.208 10.012-13.654 12.367-23.204 2.191 14.115 7.456 24.246 23.203 27.272-15.912 2.772-20.542 13.457-23.299 26.15-2.72-12.531-7.267-23.352-22.224-25.953 3.575-1.498 6.616-2.773 9.953-4.265"/><path fill="#d4b26b" d="M144.95 113.985c-7.112-5.542-9.137-14.566-5.135-22.363 4.453-8.674 13.97-11.477 28.257-7.98.884-1.913 1.824-3.949 2.907-6.344 6.166.9 7.419 3.355 5.095 8.662-1.26 2.874-3.002 3.315-5.928 2.695-7.601-1.613-14.832-.99-20.948 4.606-6.306 5.768-5.813 12.891-4.249 20.724"/><path fill="#d4b06b" d="M109 129.32c1.913-.872 3.996-1.059 5.697-1.963 1.1-.585 2.326-2.215 2.334-3.385.11-15.202.011-30.406-.033-45.609a21 21 0 0 1 .094-1.943c4.908-.225 4.922 3.375 4.858 6.732-.24 12.777-.644 25.552-.92 38.33-.038 1.805-.059 3.745.53 5.403 1.442 4.067.767 6.43-3.91 7.427-4.705 1.004-6.856.143-8.65-4.993"/><path fill="#d5b26c" d="M137.07 126.229c8.866 3.483 18.025 5.015 27.59 2.822 3.523-.808 6.67-2.177 7.422-6.708 2.724-2.094 4.01-.16 4.372 1.774.471 2.51 1.196 6.206-.096 7.53-2.076 2.126-5.619 3.425-8.71 3.85-11.411 1.567-22.122.03-30.578-9.268"/><path fill="#d3a567" d="M102.097 125.12c.132-.878.583-1.512.807-1.827 1.572 1.7 3.12 3.373 4.935 5.25-.632 1.916-1.534 3.627-2.435 5.338l-1.978-1.607c-.336-2.303-.673-4.606-1.329-7.154"/><path fill="#d5b26c" d="M136.117 125.356c.178-.091.494.015.903.365-.24.209-.527.073-.903-.365"/><path fill="#ec8163" d="M92.024 118.62c-5.934-2.8-7.849-8.702-4.83-14.89 2.516-5.157 9.352-7.583 14.451-4.7 1.195.675 1.419 3.068 1.371 4.832-8.45 1.179-11.073 4.904-10.992 14.757"/><path fill="#d6b36c" d="M92.418 118.76c-.475-9.994 2.147-13.719 10.273-14.713.363 1.673.305 3.325.308 4.976.014 7.925-2.066 9.948-10.581 9.737"/></svg>
